X: 901
T: The Auld Wife avont the fire
R: reel
B: Robert Bremner "A Collection of Scots Reels or Country Dances" 1757 p.90 #1
S: http://imslp.org/wiki/A_Collection_of_Scots_Reels_or_Country_Dances_(Bremner,_Robert)
Z: 2013 John Chambers <jc:trillian.mit.edu>
M: C
L: 1/8
K: G
% - - - - - - - - - - - - - - - - - - - - - - - - -
V: 1
d |\
TB2AG E/E/E cA | TB2AG G/G/G gd |\
TB2AG E/E/E cA | BdAB G2G :|
|: c |\
B>cde c/c/c cA | B>cde d/d/d gd |\
B>cde c/c/c cA | BdAB G2G :|
% - - - - - - - - - - - - - - - - - - - - - - - - -
V: 2 clef=bass middle=d
z |\
g2g2 a2a2 | g2g2 g2g2 |\
g2g2 a2a2 | g2d2 G2G :|\
|: z |
g2g2 a2a2 | g2g2 g2g2 |\
g2g2 c'2c'2 | d'2d2 g2g :|
% - - - - - - - - - - - - - - - - - - - - - - - - -

%%sep 1 1 500
%%sep 1 1 500
